X:0375
M:2/4
L:1/8
Q:1/4=120
K:G
dd  Td2|e.c .c.c  |e>e  Te2|gd  .d.d  |\
g>g Tg2|e>c .c.c  |Bc/A/ GF|G>A .B.B :|

